src/icons/tldraw.svg

<?xml version="1.0" encoding="UTF-8"?>
<svg fill="none" version="1.1" viewBox="0 0 24 24" xmlns="http://www.w3.org/2000/svg">
 <path d="m14.69 5.7494c0 0.70591-0.26918 1.3049-0.80767 1.7968s-1.1941 0.73797-1.9666 0.73797c-0.79595 0-1.4633-0.24599-2.0018-0.73797-0.53845-0.49198-0.80768-1.0909-0.80768-1.7968 0-0.70585 0.26923-1.3048 0.80768-1.7968 0.53847-0.49198 1.2058-0.73797 2.0018-0.73797 0.77253 0 1.4282 0.24599 1.9666 0.73797 0.53848 0.49198 0.80767 1.0909 0.80767 1.7968zm-5.6189 8.8833c0-0.70588 0.26923-1.3048 0.80775-1.7968 0.56183-0.51342 1.2409-0.77007 2.0368-0.77007 0.7491 0 1.4047 0.25665 1.9666 0.77007 0.56191 0.49198 0.88966 1.0482 0.98326 1.6684 0.1873 1.1551-0.04673 2.2995-0.70236 3.4332-0.63208 1.1337-1.5452 2-2.7393 2.5989-0.65551 0.34228-1.1939 0.33162-1.6154-0.0321-0.39803-0.34228-0.28095-0.74863 0.35121-1.2192 0.35118-0.23533 0.64379-0.53485 0.87795-0.89845 0.23416-0.36372 0.3862-0.73797 0.45649-1.123 0.02343-0.17114-0.05857-0.25665-0.24576-0.25665-0.46832-0.02144-0.94824-0.25677-1.4399-0.70599-0.49167-0.44911-0.73747-1.0053-0.73747-1.6684z" fill="#b0bec5" stroke-width="1.1714"/>
</svg>

<svg viewBox="0 0 24 24" xmlns="http://www.w3.org/2000/svg">
  <path
    d="M14.6893 5.74937C14.6893 6.45528 14.4202 7.05427 13.8817 7.54617C13.3432 8.03807 12.6876 8.28414 11.9151 8.28414C11.1191 8.28414 10.4518 8.03815 9.91327 7.54617C9.37482 7.05419 9.10559 6.45527 9.10559 5.74937C9.10559 5.04352 9.37482 4.44457 9.91327 3.95257C10.4517 3.46059 11.1191 3.2146 11.9151 3.2146C12.6876 3.2146 13.3433 3.46059 13.8817 3.95257C14.4202 4.44455 14.6893 5.04347 14.6893 5.74937ZM9.07044 14.6327C9.07044 13.9268 9.33967 13.3279 9.87819 12.8359C10.44 12.3224 11.1191 12.0658 11.915 12.0658C12.6641 12.0658 13.3197 12.3224 13.8816 12.8359C14.4435 13.3278 14.7713 13.8841 14.8649 14.5043C15.0522 15.6594 14.8181 16.8038 14.1625 17.9375C13.5304 19.0712 12.6173 19.9375 11.4232 20.5364C10.7677 20.8786 10.2293 20.868 9.80779 20.5043C9.40976 20.162 9.52684 19.7556 10.159 19.2851C10.5102 19.0497 10.8028 18.7502 11.037 18.3866C11.2711 18.0229 11.4232 17.6487 11.4934 17.2636C11.5169 17.0925 11.4349 17.007 11.2477 17.007C10.7794 16.9855 10.2994 16.7502 9.80778 16.301C9.31611 15.8519 9.07044 15.2958 9.07044 14.6327Z"
    fill="#B0BEC5"
  />
</svg>
